src/icons/svg/license.svg

<?xml version="1.0" encoding="UTF-8"?>
<svg width="40px" height="36px" viewBox="0 0 40 36" version="1.1" xmlns="http://www.w3.org/2000/svg"
>
    <path d="M39.1079734,11.3505553 L31.2722129,1.64627718 C30.464909,0.617725152 29.233748,0.0120202918 27.9262627,6.99543902e-05 L12.1269362,6.99543902e-05 C10.8148888,-0.00751564153 9.57559748,0.602189179 8.78098601,1.64627718 L0.945225583,11.3505553 C-0.391570056,13.0129795 -0.301112359,15.4057492 1.15738284,16.9624985 L17.0052754,33.6718008 L17.2174327,33.88268 C18.0174064,34.6106353 19.05875,35.0163358 20.1403464,35.0214277 L20.268152,35.0214277 C21.4049501,34.967084 22.4791775,34.4849828 23.2754174,33.6718008 L38.778235,17.0046744 C40.2685137,15.4607165 40.4122357,13.0613718 39.1169197,11.3505553 L39.1079734,11.3505553 Z M36.7359017,15.0211317 L21.2330842,31.6882581 C20.9660444,31.9653446 20.5953725,32.1182467 20.2106395,32.1100165 C19.8437167,32.1025301 19.4875058,31.9849805 19.1881948,31.7726098 L3.26234085,14.9789558 C2.77059669,14.4695141 2.73445576,13.6738658 3.17798917,13.1219407 L10.9293979,3.41766258 C11.2157551,3.08105704 11.6315001,2.88177812 12.0732579,2.86937664 L27.8725843,2.86937664 C28.3143421,2.88177812 28.7300872,3.08105703 29.0164444,3.41766258 L36.8522048,13.1219407 C37.2573516,13.7069889 37.2043269,14.4944064 36.7243992,15.0198536 L36.7359017,15.0211317 Z"
          id="形状"></path>
    <path d="M27.5862998,14.2619665 L20.1735759,22.1105075 L12.5486947,14.0932631 C11.9881604,13.5203522 11.0783076,13.4833754 10.473132,14.0089114 C9.94052837,14.5506363 9.90409094,15.4074681 10.3887803,15.9924541 L18.0571154,24.0518743 L18.184921,24.1796799 C19.3532905,25.2404082 21.1522355,25.1838732 22.2516947,24.0518743 L29.6644187,16.035908 C29.9176907,15.7623701 30.0512415,15.3990166 30.0354028,15.0265668 C30.0195641,14.6541169 29.8556474,14.3034135 29.580067,14.0523654 C28.9642821,13.5852058 28.0914727,13.6769627 27.5862998,14.2619665 L27.5862998,14.2619665 Z"
          id="路径"></path>
</svg>

<svg width="40" height="36" xmlns="http://www.w3.org/2000/svg"><path d="M39.108 11.35l-7.836-9.704A4.304 4.304 0 0 0 27.926 0h-15.8a4.174 4.174 0 0 0-3.345 1.646L.945 11.351a4.283 4.283 0 0 0 .212 5.611l15.848 16.71.212.21a4.374 4.374 0 0 0 2.923 1.14h.128a4.51 4.51 0 0 0 3.007-1.35l15.503-16.667a4.356 4.356 0 0 0 .339-5.654h-.009zm-2.372 3.671L21.233 31.688c-.267.277-.638.43-1.022.422a1.831 1.831 0 0 1-1.023-.337L3.262 14.979a1.406 1.406 0 0 1-.084-1.857l7.751-9.704a1.56 1.56 0 0 1 1.144-.549h15.8a1.56 1.56 0 0 1 1.143.549l7.836 9.704a1.526 1.526 0 0 1-.128 1.898l.012.001z"/><path d="M27.586 14.262l-7.412 7.849-7.625-8.018a1.514 1.514 0 0 0-2.076-.084 1.481 1.481 0 0 0-.084 1.983l7.668 8.06.128.128a2.927 2.927 0 0 0 4.067-.128l7.412-8.016a1.398 1.398 0 0 0-.084-1.984 1.465 1.465 0 0 0-1.994.21z"/></svg>
